packages/opendesign/src/icons/svgs/fill/arrow-up.svg

<?xml version="1.0" encoding="UTF-8"?>
<svg width="24px" height="24px" viewBox="0 0 24 24" version="1.1" xmlns="http://www.w3.org/2000/svg" xmlns:xlink="http://www.w3.org/1999/xlink">
    <title>arrow-up</title>
    <g id="arrow-up" stroke="none" stroke-width="1" fill="none" fill-rule="evenodd">
        <path d="M11.9955178,9.51009412 C12.3268887,9.51009412 12.5955178,9.77872327 12.5955178,10.1100941 L12.5955178,10.1100941 L12.5955178,18.0380263 L12.5876648,18.1353495 C12.5411646,18.4204367 12.2937516,18.6380263 11.9955178,18.6380263 C11.664147,18.6380263 11.3955178,18.3693972 11.3955178,18.0380263 L11.3955178,18.0380263 L11.3955178,10.1100941 L11.4033708,10.012771 C11.4498711,9.72768373 11.6972841,9.51009412 11.9955178,9.51009412 Z M12.3411666,5.45630939 L12.4242641,5.52573593 L17.4242641,10.5257359 C17.6585786,10.7600505 17.6585786,11.1399495 17.4242641,11.3742641 C17.2159844,11.5825437 16.8926752,11.6056859 16.6588334,11.4436906 L16.5757359,11.3742641 L11.9995178,6.798 L7.42426407,11.3742641 C7.21598445,11.5825437 6.89267517,11.6056859 6.6588334,11.4436906 L6.57573593,11.3742641 C6.36745631,11.1659844 6.34431413,10.8426752 6.50630939,10.6088334 L6.57573593,10.5257359 L11.5757359,5.52573593 C11.7840156,5.31745631 12.1073248,5.29431413 12.3411666,5.45630939 Z" id="path1" fill="#000000" fill-rule="nonzero"></path>
    </g>
</svg>

<!-- Generated by IcoMoon.io -->
<svg version="1.1" xmlns="http://www.w3.org/2000/svg" width="24" height="24" viewBox="0 0 24 24">
<title>arrow-up</title>
<path d="M11.996 9.51c0.331 0 0.6 0.269 0.6 0.6v0 7.928l-0.008 0.097c-0.046 0.285-0.294 0.503-0.592 0.503-0.331 0-0.6-0.269-0.6-0.6v0-7.928l0.008-0.097c0.046-0.285 0.294-0.503 0.592-0.503zM12.341 5.456l0.083 0.069 5 5c0.234 0.234 0.234 0.614 0 0.849-0.208 0.208-0.532 0.231-0.765 0.069l-0.083-0.069-4.576-4.576-4.575 4.576c-0.208 0.208-0.532 0.231-0.765 0.069l-0.083-0.069c-0.208-0.208-0.231-0.532-0.069-0.765l0.069-0.083 5-5c0.208-0.208 0.532-0.231 0.765-0.069z"></path>
</svg>
